X:1
T:Golden Slippers
C:Words & Music by James A. Bland
M:2/4
L:1/8
K:D clef=treble
%0 1 2
|:"^MODERATO"D/2E/2|"D"F "^VERSES"F ("A7"F/2E/2) (D/2E/2)|"D"F F F D/2 E/2
w:1.Oh, my gold-en slip-pers am_ laid a-way, Kase I
w:2.Oh, my old ban-jo_ hangs_ on de wall, Kase it
w:3.So, it's good-bye child-ren, I will have to go  Whar de
%3 4
|"A7"F (F/2 F/2) (F/2 E/2) (F/2 G/2)|F E E C/2 D/2
w:don't 'spect to wear 'em till my wed-din' day, And my
w:ain't been_ tuned_ since_ way last fall, But de
w:rain don't_ fall_ or de wind don't blow; And yer
%5 6
|E E E C/2 D/2|(E/2E/2) E E C/2 D/2
w:long tail'd coat, dat I loved_ so well, I will
w:darks all say we will hab a good time, When we
w:Uls-ter coats, why, yer will_ not need, When yer
%7 8
|E/2E/2 G/2G/2 F/2F/2 E/2E/2|"D"D2 z D/2E/2
w:wear up in de char-iot in de morn; And my
w:ride up in de char-iot in de morn; Dar's ole
w:ride up in de char-iot in de morn; But yer
%9 10
|F F (F/2E/2) (D/2E/2)|"A7"F F F D/2E/2
w:long, white robe_ dat I bought last June I'm_
w:Brud-der Ben_ and_ sis-ter Luce, Dey will
w:gold-en slip-pers must be nice and clean, And yer
%11 12
|"D"F/2F/2 (F/2F/2) F/2E/2 (F/2G/2)|"A7"F E E C/2 D/2
w:gwine_ to git changed_ Kase it fits too soon And de
w:tel-e-graph de news to Un-cle Bac-co Juice, What a
w:age_ must_ be_ Just_ sweet six-teen, And yer
%13 14
|E E E/2E/2 C/2D/2|E E E C/2D/2
w:old grey hoss_ dat I used to drive, I will
w:great camp-meet-in' der will be dat day, When we
w:white kid gloves_ yer will have to wear, When yer
%15 16
|E/2E/2 G/2G/2 F/2F/2 E/2E/2|"D"D2 z||
w:hitch him to de char-iot in de morn.
w:ride up in de char-iot in de morn.
w:ride up in de char-iot in de morn.
%1 2 3 4
|:"D"A,3 "^CHORUS"D|"  D7"F E D/2 A,3/2|"G"B,3 E|"Em"G E "E7"B,/2 B,3/2
w:Oh dem gold-en slip-pers! Oh, dem gold-en slip-pers!
%5 6 7 8
|"A7"C C C/2 C D/2|E E E3/2 C/2|"D"D C "A7"D E|"D"F3 "A7"z
w:Gold-en slip-pers I'm gwine to wear, be-case dey look so neat;
%9 10 11 12
|"D"A,3 D|F E D/2 A,3/2|"G"B,3 E|"Em"G E "E7"B,/2 B,3/2
w:Oh, dem gold-en slip-pers! Oh, dem gold-en slip-pers!
%13 14 15
|"A7"C C C/2 C D/2|E E G3/2 G/2|"D"F3/2 G/2 "A7"F E
w:Gold-en slip-pers Ise gwine to wear, To walk de gold-en
%16 17
|1("D"D B, A, F,):|2"D"D3 z||
w:street___ street.
